Assets/Icons/transport & logistic/box.svg

<svg enable-background="new 0 0 60 60" viewBox="0 0 60 60" xmlns="http://www.w3.org/2000/svg"><path d="m57.39 15.02-26.5-13.25c-.56-.28-1.23-.28-1.79 0l-26.49 13.25c-.68.34-1.11 1.03-1.11 1.79v20.51c0 4.36 2.46 8.34 6.36 10.29l21.25 10.62c.56.28 1.23.28 1.79 0l26.5-13.25c.68-.34 1.11-1.03 1.11-1.79v-26.38c-.01-.76-.44-1.45-1.12-1.79zm-27.39-10.34 10.15 5.07-23.65 11.82-10.15-5.07zm-1.5 49.89-19.3-9.65c-2.9-1.45-4.7-4.36-4.7-7.6v-18.39l24 12zm1.5-26.25-10.15-5.07 23.65-11.82 10.15 5.07zm25.5 14.25-24 12v-23.64l24-12z"/></svg>

<svg xmlns="http://www.w3.org/2000/svg" viewBox="0 0 57 56.88"><path d="M57.39,15,30.89,1.77a2,2,0,0,0-1.78,0L2.61,15A2,2,0,0,0,1.5,16.81V37.32A11.5,11.5,0,0,0,7.86,47.61L29.11,58.23a2,2,0,0,0,1.78,0L57.39,45a2,2,0,0,0,1.11-1.79V16.81A2,2,0,0,0,57.39,15ZM30,4.68,40.15,9.75,16.5,21.57,6.35,16.5ZM28.5,54.57,9.2,44.92a8.45,8.45,0,0,1-4.7-7.6V18.93l24,12ZM30,28.32,19.85,23.25,43.5,11.43,53.65,16.5ZM55.5,42.57l-24,12V30.93l24-12Z" transform="translate(-1.5 -1.56)"/></svg>
